X:82
T: A pünkősdi rózsa 
O: Lészped (Bákó), 1932
Q: 1/4=126
L:1/8
M:4/8
K:F
DA^FG | A2 D z | 
(A/B) (A/G/) G/ G | A2 A z | 
c (B/A/) (G/^F/) G | A2 ^F2 | 
AG^F_E | D2 D z | 

